X:1
T:Title
%%score { ( 1 2 ) | ( 3 4 ) }
L:1/8
Q:1/4=100
M:4/4
K:Eb
V:1 treble nm="Grand Piano"
V:2 treble 
V:3 bass 
V:4 bass 
V:1
 G2 G>F z FG[FA] | [GB]2 [GB]>[Ac] [GB]2 G2 | F2 F>G A2 GF | G2 G>=A [DB]4 | %4
w: W.~Warren~Bentley * * * * *||||
 G2 G>F z F[B,EG][B,FA] | [B,GB]2 [EGB]>[EAc] [EGB]2 [B,EG]2 | %6
w: ||
[M:9/8] [B,DF]2 [B,EG]- [B,EG]/[B,FA]/[B,GB][Ge]- [Ge]2 [B,EG] | %7
w: |
[M:4/4] [B,DB]2 [A,DF]>[B,DG] [G,E]4 | [B,GB]2 [B,EG]>[FA] [GB] .[Ge]3 | %9
w: ||
 [ce]2 [EBd]>[EAc] [EAc] .[EGB]3 | B2 B>c B2 GE | [DF]2 [DF]>[EG] [DF]2 z2 | %12
w: |||
 [GB]2 [EG]>[FA] [GB] .[Ge]3 | [ce]2 [EBd]>[EAc] [EAc] .[EGB]3 | B2 B>c B2 GE | [DG]2 [DF]>E E4 |] %16
w: ||||
V:2
 z4 E2 z2 | x8 | x8 | x8 | z4 E2 z2 | x8 |[M:9/8] x9 |[M:4/4] x8 | x8 | x8 | x8 | x8 | x8 | x8 | %14
 x8 | x8 |] %16
V:3
 [E,B,E]2 [E,B,E]>[E,A,D] G,A,[E,B,E][E,B,] | [E,E]2 [E,E]>[E,E] [E,E]2 [E,B,E]2 | %2
 [B,D]2 [B,D]>[B,E] [B,F]2 [B,E][K:bass][B,D] | [E,B,E]2 [E,B,E]>[F,E] [B,,F,]4 | %4
 [E,B,E]2 [E,B,E]>[E,A,D] z A,E,E, | E,2 E,>E, E,2 E,2 | %6
[M:9/8] B,,2 E,- E,/E,/E,[E,B,]- [E,B,]2 E, |[M:4/4] B,,2 B,,>B,, E,4 | %8
 E,2 E,>[E,E] [E,E] .[E,B,]3 | z C A,>A, A, .E,3 | %10
 [E,G,E]2 [E,G,E]>[E,A,E] [E,G,E]2 [E,B,][C,G,C] | [B,,B,]2 [B,,B,]>[B,,B,] [B,,B,]2 z2 | %12
 [E,B,]2 [E,B,]>[E,E] [E,E] .[E,B,]3 | z C A,>A, A, .E,3 | %14
 [E,G,E]2 [E,G,E]>[E,A,E] [E,G,E]2 [E,B,][C,G,C] | [B,,B,]2 [B,,B,]>[B,,A,] [E,G,]4 |] %16
V:4
 z4 E,2 z2 | x8 | x7[K:bass] x | x8 | z4 G,2 z2 | x8 |[M:9/8] x9 |[M:4/4] x8 | x8 | A,2 z2 z4 | %10
 x8 | x8 | x8 | A,2 z2 z4 | x8 | x8 |] %16

